X: 305795
M: 2/4
L: 1/16
K: F
c2 |\
a2a2f2f2 | cdcB A2c2 | B2G2g2f2 | f6 c2 |\
a2a2f2f2 | cdcB A2c2 | B2G2g2e2 | g6 f2 H|]
g2 |\
gagf efed | cdcB [c'2c2][b2B2] | b2_b2 a2g2 | a6 g2 |\
gagf efed | cdcB c2[c'2c2] | [b2B2][d'2d2][g2G2][b2B2] | [d'4d4] "^D.C."[c'2c2] |]
d2fe d2fe | d6 A2 | e2gf e2gf | e6 A2 |\
[1 b2b2 b4 | a2a2 [a4f4] | a2g2g2f2 | f4 e4 :|\
[2 b2a2 g4 | a2g2 f4 | g2f2 e2b2 | a2^c2 "^D.C."d4 |]


